X:1
T:Scottish-Valse : Francis Lefort
E:12
Z:Roger Ngaret (94-95)
R:scottish
C:Francis Lefort
S:
A:Bretagne
M:2/4
L:1/16
K:C
T:Scottish
Q:1/4=160
"G"G4 B2c2 | d4 e4 | d4 A2B2 | "D"c4 d4 | c2B2 A2G2 |\
A4 c4 | "G"B4 A2G2 | "D"A4 B4 :|
T:Valse
M:3/4
L:1/16
Q:1/4=220
"G"G4 B4 c4 | d4 e4 d4 | d4 A4 B4 | "D"c4 d4 c4 |\
"G"B4 A4 G4 | "D"A4 c4 B4 | "G"B4 A4 G4 | "D"A4 B4 A4 :|
%%rm  Habitants de Rennes, fermez vos maisons
%%rm  Car les rues sont pleines de mauvais garons.



